X:001
%%topmargin 3cm
T:The Marquis of Huntly's Farewell
C:Marshall
O:Scotland
B:Keith Norman MacDonald : "The Skye collection of the best reels & strathspeys extant" : 1887
Z:Ralph Palmer
R:Strathspey
M:C
L:1/8
K:F#m
A | A,3 C E/2E/2E ~EF/2G/2 | A>B {AB}cB {/B}A2 (Ac) | A,3 C E/2E/2E (Ec) | B>c d/2c/2B/2A/2 {/A}F2 (FA) |
A,3 C E/2E/2E ~E(F/2G/2) | A>B {AB}cB {/B}A2 (Ac) | d3 f eccA | B>c (d/2c/2)(B/2A/2) {/A}F2 F ||
f | f/2e/2d/2c/2 a>c b>c a2 | (f/2e/2)d/2c/2 ac (fe)dc | (ff (b/2a/2)g/2f/2 b2 | fbbf (ag)(fa) |
(f/2e/2)d/2c/2 a>c b>c a2 | (f/2e/2)d/2c/2 ac (fe)dc | d/2e/2f/2g/2 a/2g/2f/2e/2 f/2e/2d/2c/2 d/2c/2B/2A/2 | TB>c d/2c/2B/2A/2 {/G}F2 F |]
W:By taking the first part an octave higher every alternate time
W:the tune is played it produces a grand effect.
